X:1
L:1/4
Q:1/4=72
M:3/8
V:1
V:2 clef=bass 
K:C
[V:1] [FAd] [^ce]/4[df]/4 | [^Gdf] [^Gdf]/ | [Ace]3/2 | [Fd] [Ec]/4[DB]/4 |
[V:2] A,,/4A,,/4A,,/4A,,/4A,,/4A,,/4 | A,,/4A,,/4A,,/4A,,/4A,,/4A,,/4 | A,,/4A,,/4A,,/4A,,/4A,,/4A,,/4 | [D,,A,,]/4[D,,A,,]/4[D,,A,,]/4[D,,A,,]/4[D,,A,,]/4[D,,A,,]/4 |
